X: 1010
T: Joseph, Reel
R: Reel
M: 4/4
L: 1/8
I: scale 0.85
K: D
A Bcde|"D"f2>f2 fafd|"D/F#"A2F2yE2D2|"G"G3G "[D/F#]"GDGB|"Em"ddd2-dedB|"A"c2cd cAce|a2g2f2e2|
"D"d2cd "D/F#"fedc|"Em"B2AA"A"Bcde|"D"f3f fafd|"D7/F#"A2F2E2D2|"G"G3G "[D/F#]"GDGB|"Em"ddd2-dedB|
"A"c2cdcAce|a2g2f2e2|1 "D"d2A2"A" BAFA|"D"d3A "A"Bcde:|2 d2A2 "A"BAFA|"D" d2zd"E7" ddcd||
"A"eece "[C7o]"a3e|"[A/C#]"efed "A#70"c2Ac|"E/B"BABc"E"d2B2|"A" AEAB ccAc|
"A"eece a3e|efed"F#m"c2Ac|"Bm"BABc "E7"d2B2|1 "A"AB (3cBAa2ze:|2 "A"A3A "A+"Bcde|]

%%newpage
%%textfont * 14
%%begintext justify
%%Listening Sets
%%endtext
